X:1
T:Io mi sento
T:Io mi sento
T:Enrico Radesca di Foggia
T:Source : Canzonette, madrigale & arie---Libro I---Milano---Heredes S.Tini & F Lomazzi---1606. Editor : André Vierendeels (15/04/14).
C:Enrico Radesca di Foggia
%%score [ 1 2 ] 3
L:1/8
Q:1/4=98
M:4/4
K:F
V:1 treble nm="Soprano" snm="S"
V:2 bass nm="Bass" snm="B"
V:3 bass nm="MusicXML Part"
V:1
 G2 G2 G2 GG | G4 G4 | z _eee e2 d2 | c8 |[M:2/4] B4 :: z2 d2 |[M:4/4] c2 c2 c2 c2 | c3 d _e2 e2 | %8
w: Io mi sen- to mo-|ri- re,|e non lo pos- so|di-|re,|per-|che vuol' il mio|fa- to'e la mia|
w: Io mi sen- to'ab- brug-|gia- re,|e non pos- so par-|la-|re,|che|vo- glian quei ce-|le- sti'ar- den- ti|
w: Ahi ch'io per- do la|vi- ta,|e non da- man- do'a-|i-|ta,|che|vuol co- s'il mio|fa- to'e'l mio de-|
w: Mor- te, fuo- co'e do-|lo- re,|sia- te- mi dun- que'al|co-|re,|ch'io|mi sen- to'il mo-|rir si dol- c'e|
 d8 | c8 | G2 G2 G2 GG | G6 A2 | B3 A/B/ c4- | c2 B2 A4 | G8 :| %15
w: sor-|te,|che ta- cend' et a-|mand' io|giung' _ _ _|_ a mor-|te.|
w: lu-|mi,|che ta- cen- do'et a-|mand' io|mi _ _ _|_ con- su-|mi.|
w: si-|o,|che fia se- cre- to'il|pre- ci-|pi- * * *|* tio mi-|o.|
w: ca-|ro,|ch'o- gni mio ben dal-|la mia|mor- * * *|* te'im- pa-|ro.|
V:2
 G,2 G,2 G,2 G,G, | _E,4 E,4 | z _E,E,E, E,2 B,,2 | F,8 |[M:2/4] B,,4 :: z2 B,,2 | %6
w: Io mi sen- to mo-|ri- re,|e non lo pos- so|di-|re,|per-|
w: Io mi sen- to'ab- brug-|gia- re,|e non pos- so par-|la-|re,|che|
w: Ahi ch'io per- do la|vi- ta,|e non da- man- do'a|i-|ta,|che|
w: Mor- te, fuo- co'e do-|lo- re,|sia- te- mi dun- que'al|co-|re,|ch'io|
[M:4/4] F,2 F,2 F,2 F,2 | F,2 F,2 C,2 C,2 | G,8 | C,8 | G,2 G,2 G,2 G,G, | G,6 F,2 | %12
w: che vuol' il mio|fa- to'e la mia|sor-|te,|che ta- cend' et a|mand' io|
w: vo- glian quei ce-|lz sti'ar- den- ti|lu-|mi,|che ta- cen- do'et a-|mand' io|
w: vuol co- s'il mio|fa- to'e'l mio de-|si-|o,|che fia se- cre- to'il|pre- ci-|
w: mai sen- ro'il mo-|nir si dol- c'e|ca-|ro,|ch'o- gni mio ben dal|la mia|
 _E,2 D,2 C,2 C,2 | D,8 | G,,8 :| %15
w: giung' _ _ a|mor-|te.|
w: mai _ _ con-|su-|mi.|
w: pi- * * tio|mi-|o.|
w: mor- * * te'im-|pa-|ro.|
V:3
 G,8 | _E,8 | _E,6 B,,2 | F,8 |[M:2/4] B,,4 :: B,,4 |[M:4/4] F,8 | F,4 C,4 | G,8 | C,8 | G,8 | %11
 G,6 F,2 | _E,2 D,2 C,4 | D,8 | G,,8 :| %15

